X:392
T: WISST IHR WO ICH GERNE WEIL
N: B0465
O: Europa, Mitteleuropa, Deutschland
R: Liebes - Lied, Leid, Klage
M: 3/4
L: 1/16
K: G
 | B6B2B2B2 | d3cB8
G6G2A2A2 | B2d2A4z4
B6B2B2B2 | d3cB8
G6G2A2A2 | B8F2z2
F2G2F4B4 | F2G2F4z4
G2G2G2A2B2^c2 | e6d2^c2=c2
B6B2B2B2 | d3cB8
G2F2G4A4 | B12
B4A4c2B2 | G8z4

